html/images/os/brother.svg

<svg clip-rule="evenodd" fill-rule="evenodd" image-rendering="optimizeQuality" shape-rendering="geometricPrecision" text-rendering="geometricPrecision" viewBox="0 0 2.5984308 .57123263" xmlns="http://www.w3.org/2000/svg"><g fill="#005cab" transform="translate(-.038 -.034)"><path d="m2.565.138c-.146 0-.224.082-.227.188a.233.233 0 0 0 -.233-.19.23.23 0 0 0 -.23.188.186.186 0 0 0 -.183-.188.162.162 0 0 0 -.115.047v-.148h-.11v.33l-.001.033c-.007.068-.053.102-.103.102-.052 0-.1-.024-.1-.102l-.003-.028v-.123h.171v-.104h-.17v-.108h-.111v.29a.235.235 0 0 0 -.412-.103v-.084h-.013c-.143 0-.22.08-.225.182a.221.221 0 0 0 -.218-.182.186.186 0 0 0 -.137.056v-.16h-.107v.336c.002.13.092.234.232.234.12 0 .207-.078.23-.182v.171h.11v-.243c.003-.068.045-.107.113-.108a.235.235 0 1 0 .428.172c0 .114.09.19.2.19.046 0 .086-.02.117-.052v.04h.11v-.246c.003-.075.047-.107.095-.107s.09.032.09.106l.001.018v.23h.112v-.173c.02.112.116.185.23.185a.216.216 0 0 0 .221-.169h-.108a.119.119 0 0 1 -.113.078c-.06 0-.111-.04-.124-.108h.357v.188h.11v-.214l.001-.03c.002-.067.046-.106.116-.106h.012v-.106h-.012zm-2.296.36a.127.127 0 0 1 -.128-.128c0-.07.056-.128.129-.128s.129.056.129.128a.127.127 0 0 1 -.129.128zm.65 0a.127.127 0 0 1 -.126-.128.126.126 0 0 1 .127-.128c.073 0 .128.056.128.128a.127.127 0 0 1 -.128.128zm1.067-.18a.125.125 0 0 1 .119-.09c.07 0 .11.056.119.09z"/><path d="m2.526.545c0 .03.025.055.055.055a.055.055 0 1 0 0-.11.055.055 0 0 0 -.055.055zm.007 0a.048.048 0 1 1 .096 0 .048.048 0 0 1 -.096 0z"/><path d="m2.565.52h.022c.009 0 .012.004.012.011 0 .008-.003.012-.012.012h-.022zm0 .03h.022c.006 0 .01.005.01.013v.007l.003.008h.01v-.001l-.004-.008v-.009c-.001-.006-.004-.011-.008-.013.006-.002.01-.008.01-.017 0-.01-.007-.018-.02-.018h-.032v.066h.009v-.027z"/></g></svg>

<svg xmlns="http://www.w3.org/2000/svg" id="svg2" viewBox="0 0 2.5984308 0.57123263" clip-rule="evenodd" fill-rule="evenodd" image-rendering="optimizeQuality" shape-rendering="geometricPrecision" text-rendering="geometricPrecision"><defs id="defs4"><style id="style6">.fil0{fill:#005cab}</style></defs><g transform="translate(-.038 -.034)" id="Layer_x0020_1"><g id="_218150328"><path d="M2.565.138c-.146 0-.224.082-.227.188a.233.233 0 0 0-.233-.19.23.23 0 0 0-.23.188.186.186 0 0 0-.183-.188.162.162 0 0 0-.115.047V.035h-.11v.33l-.001.033C1.459.466 1.413.5 1.363.5c-.052 0-.1-.024-.1-.102L1.26.37V.247h.171V.143h-.17V.035H1.15v.29A.235.235 0 0 0 .738.222V.138H.725C.582.138.505.218.5.32A.221.221 0 0 0 .282.138a.186.186 0 0 0-.137.056v-.16H.038V.37C.04.5.13.604.27.604.39.604.477.526.5.422v.171h.11V.35C.613.282.655.243.723.242a.235.235 0 1 0 .428.172c0 .114.09.19.2.19.046 0 .086-.02.117-.052v.04h.11V.346c.003-.075.047-.107.095-.107s.09.032.09.106l.001.018v.23h.112V.42c.02.112.116.185.23.185a.216.216 0 0 0 .221-.169h-.108a.119.119 0 0 1-.113.078c-.06 0-.111-.04-.124-.108h.357v.188h.11V.38L2.45.35c.002-.067.046-.106.116-.106h.012V.138h-.012zM.269.498A.127.127 0 0 1 .141.37C.141.3.197.242.27.242c.073 0 .129.056.129.128A.127.127 0 0 1 .27.498zm.65 0A.127.127 0 0 1 .793.37.126.126 0 0 1 .92.242c.073 0 .128.056.128.128A.127.127 0 0 1 .92.498zm1.067-.18a.125.125 0 0 1 .119-.09c.07 0 .11.056.119.09h-.238z" class="fil0" id="_217143760" fill="#005cab"/><path d="M2.526.545c0 .03.025.055.055.055a.055.055 0 1 0 0-.11.055.055 0 0 0-.055.055zm.007 0a.048.048 0 1 1 .096 0 .048.048 0 0 1-.096 0z" class="fil0" id="_217147792" fill="#005cab"/><path d="M2.565.52h.022c.009 0 .012.004.012.011 0 .008-.003.012-.012.012h-.022V.52zm0 .03h.022c.006 0 .01.005.01.013V.57L2.6.578h.01V.577L2.606.569V.56C2.605.554 2.602.549 2.598.547c.006-.002.01-.008.01-.017 0-.01-.007-.018-.02-.018h-.032v.066h.009V.551z" class="fil0" id="_217148272" fill="#005cab"/></g></g></svg>
